X:1
T:Where the Cross Is Leading
T:Bentley DeForest Ackley
T:Where the Cross Is Leading
T:Public Domain
T:Public Domain
C:Bentley DeForest Ackley
Z:Public Domain
%%score ( 1 2 ) ( 3 4 )
L:1/8
M:4/4
K:Ab
V:1 treble 
V:2 treble 
V:3 bass 
V:4 bass 
V:1
 [CE]2 [A,C]>[B,D] [CE]2 [CA]2 | [Ec]4 (C2 E2) | [FA]2 [=EG]>[GB] [FA]2 [DF]2 | [DF]2 [CE]2 [CE]4 | %4
w: 1.~On where the cross is|lead- ing, *|der the glo- rious ban-|ner go; March-|
w: 2.~Clos- er a- round us|throng- ing *|ther the might- y hosts|of sin; Yet,|
w: 3.~On where the cross is|lead- ing! *|not, tho’ march- ing days|be long; Ours|
 E2 [EG]>[GB] [Ge]2 [Fd]2 | [Fd]2 [Ec]2 [Ec]2 [EA]2 | [=DF]2 [DG]>[DA] [Dc]2 [D_c]2 | [EB]6 z2 || %8
w: ing in phal- anx brave|strong, We fear not|to meet the foe. *||
w: while our great com- mand-|leads, We’ll fight, and|the tri- umph win. *||
w: is the bat- tle, His|tri- umph, Ours be|the vic- tor’s song. *||
"^Refrain" [Ec]4 [Ec]3 [Ec] | [FB]>[FA] [EG]>[DF] (3(EFG (3ABc) | [Ee]4 [Ee]3 [Ec] | %11
w: |||
w: |||
w: |||
 [CA]>[CA] [=DB]>[Dc] (3(EEF (3GAB) | [Ec]2 [Ec]>[Ec] [Ee]2 [Ee]2 | [FA]2 [FA]>[FB] [=Ec]2 [Ec]2 | %14
w: |||
w: |||
w: |||
 [Ed]2 [Ec]>[EB] [Ee]2 [FA]2 | [Ec]2 [DB]>[DB] [CA]4 |] %16
w: ||
w: ||
w: ||
V:2
 x8 | x4 A4 | x8 | x8 | E2 x6 | x8 | x8 | x8 || x8 | x4 C4 | x8 | x4 B4 | x8 | x8 | x8 | x8 |] %16
w: |Un-|||and||||||||||||
w: |Ga-|||er||||||||||||
w: |Fear|||the||||||||||||
V:3
 [A,,A,]2 [A,,E,]>[A,,E,] [A,,A,]2 [A,,A,]2 | [A,,A,]4 (A,,2 C,2) | %2
w: ~ ~ ~ ~ ~|~ ~ *|
 [D,D]2 [D,D]>[D,D] [D,D]2 [D,A,]2 | [A,,A,]2 [A,,A,]2 [A,,A,]4 | %4
w: ~ ~ ~ ~ ~|~ ~ ~|
 [E,G,]2 [E,B,]>[E,E] [E,B,]2 [E,G,]2 | A,2 A,2 A,2 [C,A,]2 | %6
w: ~ ~ ~ ~ ~|~ ~ ~ ~|
 [B,,A,]2 [B,,A,]>[B,,A,] [B,,A,]2 [B,,A,]2 | (z2 G,>F, E,D,C,B,,) || %8
w: ~ ~ On, on, u-||
 [A,,A,]2 [C,A,]2 ([E,A,]2 A,)A, | [D,D]>[D,D] [D,A,]>[D,A,] [A,,A,]4 | %10
w: * * ed * in|On, on, to joy and|
 ([A,,C]2 [C,A,]2) ([E,C]2 [A,C])A, | [F,A,]>[F,A,] [B,,A,]>[B,,A,] [E,G,]4 | %12
w: peace * a- * bove;|ing to- ge- ther, loy-|
 A,2 A,>A, [G,B,]2 [G,B,]2 | [F,C]2 [D,D]>[D,F,] [C,G,]2 [C,G,]2 | %14
w: al for- ev- er, Je-|ing— on for the King!|
 [B,,G,]2 [E,G,]>[D,G,] [C,A,]2 [D,A,]2 | [E,A,]2 [E,G,]>[E,G,] [A,,A,]4 |] %16
w: ||
V:4
 x8 | x4 A,4 | x8 | x8 | x8 | A,2 A,2 A,2 x2 | x8 | [E,G,]6 x2 || x6 A,A, | x8 | x7 A, | x8 | %12
w: |~||||~ ~ ~||nit-|His love!||March-||
 A,2 A,>A, x4 | x8 | x8 | x8 |] %16
w: sus is lead-||||

